!!!OTL: Songlang danghongjun
!!!ARE: Asia, China,ÿHunan Huarong
!! I, 530
!!!SCT: C2194
!!!YEM: Copyright 1995, estate of Helmut Schaffrath.
**kern
*ICvox
*Ivox
*M4/4
*k[f#c#g#]
*A:
{8.aa
16bb
8eee
8ccc#
4.bb
8ccc#
=1
4aa
8bb
8ff#
8ee
8cc#
4ee}
=2
{8ff#
16ee
16ff#
8.aa
16bb
8ccc#
16ccc#
16bb
16aa
16bb
16eee
16ccc#
=3
8.bb
16ccc#
16bb
16aa
8ff#
8.ee
16cc#
4ee}
=4
{8.eee
16ccc#
4bb
16aa
16bb
16aa
16ff#
4ee
=5
8.aa
16bb
8eee
8ccc#
8bb
16bb
16aa
4ff#}
=6
{8.aa
16bb
8eee
8ccc#
16aa
16bb
8ccc#
4bb
=7
8ccc#
16ccc#
16bb
16aa
16bb
16eee
16ccc#
4.bb
8ccc#}
=8
{8aa
16aa
16ff#
16ee
16ff#
8aa
8ff#
8ee
8cc#
16b
16cc#
=9
8.ee
16aa
16ff#
16ee
16cc#
16b
2aa}
==
!!!AGN: Xiaodiao
!!!ONB: ESAC (Essen Associative Code) Database: SENGANSU
!!!AMT: simple quadruple
!!!AIN: vox
!!!EED: Helmut Schaffrath
!!!EEV: 1.0
*-
